icons/svg/shopping/hearing_aids.svg

<?xml version="1.0" encoding="UTF-8" standalone="no"?>
<!-- Created with Inkscape (http://www.inkscape.org/) -->

<svg
   xmlns:dc="http://purl.org/dc/elements/1.1/"
   xmlns:cc="http://creativecommons.org/ns#"
   xmlns:rdf="http://www.w3.org/1999/02/22-rdf-syntax-ns#"
   xmlns:svg="http://www.w3.org/2000/svg"
   xmlns="http://www.w3.org/2000/svg"
   xmlns:xlink="http://www.w3.org/1999/xlink"
   xmlns:sodipodi="http://sodipodi.sourceforge.net/DTD/sodipodi-0.dtd"
   xmlns:inkscape="http://www.inkscape.org/namespaces/inkscape"
   version="1.0"
   width="580"
   height="580"
   id="svg2"
   sodipodi:version="0.32"
   inkscape:version="0.48.0 r9654"
   sodipodi:docname="shopping_tobacco.svg"
   inkscape:output_extension="org.inkscape.output.svg.inkscape">
  <metadata
     id="metadata2975">
    <rdf:RDF>
      <cc:Work
         rdf:about="">
        <dc:format>image/svg+xml</dc:format>
        <dc:type
           rdf:resource="http://purl.org/dc/dcmitype/StillImage" />
        <cc:license
           rdf:resource="http://web.resource.org/cc/PublicDomain" />
        <dc:language>en</dc:language>
        <dc:title></dc:title>
      </cc:Work>
    </rdf:RDF>
  </metadata>
  <sodipodi:namedview
     inkscape:window-height="1002"
     inkscape:window-width="1278"
     inkscape:pageshadow="2"
     inkscape:pageopacity="0.0"
     guidetolerance="10.0"
     gridtolerance="10.0"
     objecttolerance="10.0"
     borderopacity="1.0"
     bordercolor="#666666"
     pagecolor="#ffffff"
     id="base"
     inkscape:zoom="0.9216771"
     inkscape:cx="196.664"
     inkscape:cy="179.42334"
     inkscape:window-x="0"
     inkscape:window-y="24"
     inkscape:current-layer="svg2"
     showgrid="false"
     inkscape:window-maximized="0"
     showguides="true"
     inkscape:guide-bbox="true" />
  <defs
     id="defs4">
    <inkscape:perspective
       sodipodi:type="inkscape:persp3d"
       inkscape:vp_x="0 : 290 : 1"
       inkscape:vp_y="6.1230318e-14 : 1000 : 0"
       inkscape:vp_z="580 : 290 : 1"
       inkscape:persp3d-origin="290 : 193.33333 : 1"
       id="perspective2441" />
    <inkscape:perspective
       id="perspective3452"
       inkscape:persp3d-origin="30 : 20 : 1"
       inkscape:vp_z="60 : 30 : 1"
       inkscape:vp_y="0 : 1000 : 0"
       inkscape:vp_x="0 : 30 : 1"
       sodipodi:type="inkscape:persp3d" />
    <symbol
       viewBox="244.5 110 489 219.9"
       id="symbol-university">
      <path
         id="path4460"
         d="M79,43l57,119c0,0,21-96,104-96s124,106,124,106l43-133l82-17L0,17L79,43z" />
      <path
         id="path4462"
         d="M94,176l-21,39"
         stroke-width="20"
         stroke="#000000"
         fill="none" />
      <path
         id="path4464"
         d="M300,19c0,10.5-22.6,19-50.5,19S199,29.5,199,19s22.6-19,50.5-19S300,8.5,300,19z" />
      <path
         id="path4466"
         d="M112,216l-16-38L64,88c0,0-9-8-4-35s16-24,16-24"
         stroke-width="20"
         stroke="#000000"
         ill="none" />
    </symbol>
    <inkscape:perspective
       id="perspective4471"
       inkscape:persp3d-origin="372.04724 : 350.78739 : 1"
       inkscape:vp_z="744.09448 : 526.18109 : 1"
       inkscape:vp_y="0 : 1000 : 0"
       inkscape:vp_x="0 : 526.18109 : 1"
       sodipodi:type="inkscape:persp3d" />
    <inkscape:perspective
       id="perspective4668"
       inkscape:persp3d-origin="6 : 4 : 1"
       inkscape:vp_z="12 : 6 : 1"
       inkscape:vp_y="0 : 1000 : 0"
       inkscape:vp_x="0 : 6 : 1"
       sodipodi:type="inkscape:persp3d" />
    <inkscape:perspective
       id="perspective3826"
       inkscape:persp3d-origin="0.5 : 0.33333333 : 1"
       inkscape:vp_z="1 : 0.5 : 1"
       inkscape:vp_y="0 : 1000 : 0"
       inkscape:vp_x="0 : 0.5 : 1"
       sodipodi:type="inkscape:persp3d" />
    <inkscape:perspective
       id="perspective3855"
       inkscape:persp3d-origin="0.5 : 0.33333333 : 1"
       inkscape:vp_z="1 : 0.5 : 1"
       inkscape:vp_y="0 : 1000 : 0"
       inkscape:vp_x="0 : 0.5 : 1"
       sodipodi:type="inkscape:persp3d" />
    <inkscape:perspective
       id="perspective3909"
       inkscape:persp3d-origin="0.5 : 0.33333333 : 1"
       inkscape:vp_z="1 : 0.5 : 1"
       inkscape:vp_y="0 : 1000 : 0"
       inkscape:vp_x="0 : 0.5 : 1"
       sodipodi:type="inkscape:persp3d" />
    <inkscape:perspective
       id="perspective3950"
       inkscape:persp3d-origin="0.5 : 0.33333333 : 1"
       inkscape:vp_z="1 : 0.5 : 1"
       inkscape:vp_y="0 : 1000 : 0"
       inkscape:vp_x="0 : 0.5 : 1"
       sodipodi:type="inkscape:persp3d" />
    <inkscape:perspective
       id="perspective3972"
       inkscape:persp3d-origin="0.5 : 0.33333333 : 1"
       inkscape:vp_z="1 : 0.5 : 1"
       inkscape:vp_y="0 : 1000 : 0"
       inkscape:vp_x="0 : 0.5 : 1"
       sodipodi:type="inkscape:persp3d" />
    <inkscape:perspective
       id="perspective3994"
       inkscape:persp3d-origin="0.5 : 0.33333333 : 1"
       inkscape:vp_z="1 : 0.5 : 1"
       inkscape:vp_y="0 : 1000 : 0"
       inkscape:vp_x="0 : 0.5 : 1"
       sodipodi:type="inkscape:persp3d" />
    <inkscape:perspective
       id="perspective4016"
       inkscape:persp3d-origin="0.5 : 0.33333333 : 1"
       inkscape:vp_z="1 : 0.5 : 1"
       inkscape:vp_y="0 : 1000 : 0"
       inkscape:vp_x="0 : 0.5 : 1"
       sodipodi:type="inkscape:persp3d" />
    <inkscape:perspective
       id="perspective4837"
       inkscape:persp3d-origin="0.5 : 0.33333333 : 1"
       inkscape:vp_z="1 : 0.5 : 1"
       inkscape:vp_y="0 : 1000 : 0"
       inkscape:vp_x="0 : 0.5 : 1"
       sodipodi:type="inkscape:persp3d" />
    <inkscape:perspective
       id="perspective4971"
       inkscape:persp3d-origin="0.5 : 0.33333333 : 1"
       inkscape:vp_z="1 : 0.5 : 1"
       inkscape:vp_y="0 : 1000 : 0"
       inkscape:vp_x="0 : 0.5 : 1"
       sodipodi:type="inkscape:persp3d" />
    <inkscape:perspective
       id="perspective6216"
       inkscape:persp3d-origin="0.5 : 0.33333333 : 1"
       inkscape:vp_z="1 : 0.5 : 1"
       inkscape:vp_y="0 : 1000 : 0"
       inkscape:vp_x="0 : 0.5 : 1"
       sodipodi:type="inkscape:persp3d" />
    <inkscape:perspective
       id="perspective6764"
       inkscape:persp3d-origin="0.5 : 0.33333333 : 1"
       inkscape:vp_z="1 : 0.5 : 1"
       inkscape:vp_y="0 : 1000 : 0"
       inkscape:vp_x="0 : 0.5 : 1"
       sodipodi:type="inkscape:persp3d" />
    <inkscape:perspective
       id="perspective6817"
       inkscape:persp3d-origin="0.5 : 0.33333333 : 1"
       inkscape:vp_z="1 : 0.5 : 1"
       inkscape:vp_y="0 : 1000 : 0"
       inkscape:vp_x="0 : 0.5 : 1"
       sodipodi:type="inkscape:persp3d" />
    <radialGradient
       gradientUnits="userSpaceOnUse"
       gradientTransform="scale(0.79354273,1.2601716)"
       xlink:href="#linearGradient829"
       id="radialGradient874"
       cx="180.2453"
       cy="198.41902"
       r="101.58017"
       fx="180.2453"
       fy="198.41902" />
    <linearGradient
       id="linearGradient829">
      <stop
         style="stop-color: rgb(255, 255, 255); stop-opacity: 0.341667;"
         offset="0.0000000"
         id="stop830" />
      <stop
         style="stop-color: rgb(255, 255, 255); stop-opacity: 0;"
         offset="1.0000000"
         id="stop831" />
    </linearGradient>
    <radialGradient
       gradientUnits="userSpaceOnUse"
       gradientTransform="scale(1.007004,0.99304475)"
       xlink:href="#linearGradient829"
       id="radialGradient832"
       cx="360.85146"
       cy="167.47372"
       r="46.394721"
       fx="360.85146"
       fy="167.47372" />
    <linearGradient
       id="linearGradient6826">
      <stop
         style="stop-color: rgb(255, 255, 255); stop-opacity: 0.341667;"
         offset="0.0000000"
         id="stop6828" />
      <stop
         style="stop-color: rgb(255, 255, 255); stop-opacity: 0;"
         offset="1.0000000"
         id="stop6830" />
    </linearGradient>
    <linearGradient
       gradientUnits="userSpaceOnUse"
       gradientTransform="scale(0.74491357,1.3424376)"
       xlink:href="#linearGradient855"
       id="linearGradient850"
       x1="465.29425"
       y1="248.24467"
       x2="463.27056"
       y2="405.7687"
       spreadMethod="pad" />
    <linearGradient
       id="linearGradient855">
      <stop
         style="stop-color: rgb(255, 255, 255); stop-opacity: 0;"
         offset="0.0000000"
         id="stop856" />
      <stop
         style="stop-color: rgb(255, 166, 23); stop-opacity: 0.733333;"
         offset="1.0000000"
         id="stop857" />
    </linearGradient>
    <linearGradient
       gradientUnits="userSpaceOnUse"
       gradientTransform="scale(1.4586159,0.68558144)"
       xlink:href="#linearGradient855"
       id="linearGradient854"
       x1="157.80581"
       y1="120.96176"
       x2="155.40575"
       y2="231.63491" />
    <linearGradient
       id="linearGradient6837">
      <stop
         style="stop-color: rgb(255, 255, 255); stop-opacity: 0;"
         offset="0.0000000"
         id="stop6839" />
      <stop
         style="stop-color: rgb(255, 166, 23); stop-opacity: 0.733333;"
         offset="1.0000000"
         id="stop6841" />
    </linearGradient>
    <inkscape:perspective
       id="perspective6928"
       inkscape:persp3d-origin="0.5 : 0.33333333 : 1"
       inkscape:vp_z="1 : 0.5 : 1"
       inkscape:vp_y="0 : 1000 : 0"
       inkscape:vp_x="0 : 0.5 : 1"
       sodipodi:type="inkscape:persp3d" />
    <inkscape:perspective
       id="perspective10781"
       inkscape:persp3d-origin="0.5 : 0.33333333 : 1"
       inkscape:vp_z="1 : 0.5 : 1"
       inkscape:vp_y="0 : 1000 : 0"
       inkscape:vp_x="0 : 0.5 : 1"
       sodipodi:type="inkscape:persp3d" />
    <inkscape:perspective
       id="perspective10806"
       inkscape:persp3d-origin="0.5 : 0.33333333 : 1"
       inkscape:vp_z="1 : 0.5 : 1"
       inkscape:vp_y="0 : 1000 : 0"
       inkscape:vp_x="0 : 0.5 : 1"
       sodipodi:type="inkscape:persp3d" />
    <inkscape:perspective
       id="perspective10878"
       inkscape:persp3d-origin="0.5 : 0.33333333 : 1"
       inkscape:vp_z="1 : 0.5 : 1"
       inkscape:vp_y="0 : 1000 : 0"
       inkscape:vp_x="0 : 0.5 : 1"
       sodipodi:type="inkscape:persp3d" />
    <inkscape:perspective
       id="perspective10919"
       inkscape:persp3d-origin="0.5 : 0.33333333 : 1"
       inkscape:vp_z="1 : 0.5 : 1"
       inkscape:vp_y="0 : 1000 : 0"
       inkscape:vp_x="0 : 0.5 : 1"
       sodipodi:type="inkscape:persp3d" />
    <clipPath
       id="clipoutline2"
       clipPathUnits="userSpaceOnUse">
      <path
         inkscape:connector-curvature="0"
         d="m 55.8,12 0.76,0.16 c 8.84,-2.94 28.68,8.64 24.26,18.96 -1.12,1.62 -0.93,4.5 0.42,6.31 L 56.43,62.25 c -1.39,-1.39 -4.48,-1.36 -5.9,0 L 9.5,101.63 c -3.74,3.59 -0.8,6.64 0.78,8.25 l 7.36,7.36 c 1.61,1.6 5.86,3.76 8.88,0.56 L 65.24,76.99 c 1.35,-1.42 1.36,-4.47 0,-5.87 0,0 0.01,-0.02 0,-0.02 L 90.15,46.2 c 2.63,2.37 5.113827,2.574854 7.47,1.93 4.55057,-1.245432 7.08725,3.206643 9.81,6.46 l -1.23,1.21 c -1.82,1.84 -1.65,4.94 0.39,6.98 2.04,2.04 5.15,2.21 6.97,0.39 l 8.14,-8.13 c 1.82,-1.84 1.65,-4.94 -0.4,-6.97 -1.84,-1.85 -4.51,-2.09 -6.37,-0.77 -5.58,-6.26 -2.65,-7.2 -10.01,-15.35 L 91.13,17.86 C 81.2,8.12 68.3,8.13 55.8,12 z"
         id="outline2" />
    </clipPath>
  </defs>
  <g
     id="g1327">
    <path
       d="M 66.275,1.768 C 24.94,1.768 1.704,23.139 1.704,66.804 L 1.704,516.927 C 1.704,557.771 22.599,579.156 63.896,579.156 L 515.92,579.156 C 557.227,579.156 578.149,558.841 578.149,516.927 L 578.149,66.804 C 578.149,24.203 557.227,1.768 514.628,1.768 C 514.624,1.768 66.133,1.625 66.275,1.768 z "
       style="fill:#111;stroke:#eee;stroke-width:3.40799999"
       id="path1329" />
  </g>
  <g
     id="g3338"
     transform="matrix(1.3973279,-0.2437849,0.2437849,1.3973279,-185.07402,-56.183307)" />
  <path
     id="path619"
     d="M 290.33448,291.12513"
     inkscape:connector-curvature="0"
     style="fill:#ffffff" />
  <path
     id="path621"
     d="M 290.33448,291.12513"
     inkscape:connector-curvature="0"
     style="fill:#ffffff" />
  <path
     id="path623"
     d="M 290.33448,291.12513"
     inkscape:connector-curvature="0"
     style="fill:#ffffff" />
  <path
     id="path625"
     d="m 282.29114,185.44629 h 10.56789 c 58.9453,0.11742 92.76253,56.24463 92.99737,94.2303 -0.23484,7.39752 -2.05486,13.73825 -10.45046,13.56212 -17.67185,0.17613 -11.33112,-28.23974 -25.89132,-52.42845 -6.86912,-11.91822 -29.00296,-33.46496 -54.24846,-33.28883 h -9.27626 c -13.5034,-0.17613 -38.98375,7.63236 -56.06849,33.28883 -21.3119,30.99913 -7.33881,53.72008 -25.2455,53.60265 -2.75939,0.11743 -10.6853,-0.70452 -10.56788,-13.5034 0.82194,-58.29949 54.24847,-95.3458 88.18311,-95.46322 l 0,0 z"
     inkscape:connector-curvature="0"
     style="fill:#ffffff" />
  <path
     id="path627"
     d="m 290.33448,507.82545 c 22.13384,0.23484 39.21859,-22.19255 39.45343,-37.63341 v -32.05591 c -0.23484,-65.6383 68.69124,-91.52961 68.4564,-157.22662 0.23484,-61.52857 -55.36397,-108.02726 -107.90983,-107.90983 -43.56317,-0.11743 -73.27066,28.00489 -84.48436,42.56508 -33.69981,41.68443 -14.32535,81.43142 -38.1618,81.43142 -6.75171,0 -13.4447,-3.81618 -13.50341,-17.31959 -1.05679,-65.16862 52.722,-134.27083 137.49991,-134.38825 68.33898,0.11742 135.56246,54.60073 135.56246,138.14572 0,77.38039 -67.75188,93.58448 -67.75188,161.51248 v 29.00297 c 0,29.82492 -26.59584,63.9357 -70.27642,64.11183 -1.58518,-0.46968 -3.46392,-1.05679 -5.51879,-1.23292 -8.04333,-2.40713 -13.62082,-10.86144 -11.68338,-19.0809 2.28971,-7.16268 8.92399,-8.92399 17.90669,-9.86336 h 0.41098 l 0,-0.0587 z"
     inkscape:connector-curvature="0"
     style="fill:#ffffff" />
  <rect
     id="rect629"
     height="66.518417"
     width="24.364643"
     transform="matrix(0.70590575,-0.70830577,0.70830577,0.70590575,0,0)"
     y="376.99933"
     x="-138.97925"
     style="fill:#ffffff" />
  <path
     id="path631"
     d="m 232.73951,335.15798 c -0.23484,-7.51494 5.87105,-13.62083 13.09244,-13.85567 7.92591,0.23484 13.97309,6.34073 13.85566,13.85567 0.11743,7.57365 -5.98846,13.62082 -13.85566,13.85567 -7.22139,-0.17614 -13.26857,-6.28202 -13.09244,-13.85567 l 0,0 z"
     inkscape:connector-curvature="0"
     style="fill:#ffffff" />
  <path
     id="path633"
     d="m 276.47881,291.47739 c 0.11742,-7.80849 6.1646,-13.91438 13.85567,-13.85567 7.45623,-0.0587 13.5034,6.10589 13.85567,13.85567 -0.35227,7.22139 -6.39944,13.38599 -13.85567,13.09244 -7.69107,0.29355 -13.73825,-5.87105 -13.85567,-13.09244 l 0,0 z"
     inkscape:connector-curvature="0"
     style="fill:#ffffff" />
  <path
     id="path635"
     d="m 98.938365,468.90041 c -0.352263,-7.3388 5.871045,-13.44469 13.209855,-13.09243 7.69107,-0.41097 13.73825,5.75363 13.85567,13.09243 -0.11742,7.74979 -6.1646,13.79696 -13.85567,13.85567 -7.33881,-0.0587 -13.562118,-6.1646 -13.209855,-13.85567 l 0,0 z"
     inkscape:connector-curvature="0"
     style="fill:#ffffff" />
  <path
     id="path637"
     d="m 142.73637,425.21983 c 0,-7.69107 6.10589,-13.79696 13.85567,-13.85567 7.22139,0.11742 13.4447,6.1646 13.09243,13.85567 0.35227,7.39752 -5.87104,13.44469 -13.09243,13.85567 -7.74978,-0.41098 -13.85567,-6.45815 -13.85567,-13.85567 l 0,0 z"
     inkscape:connector-curvature="0"
     style="fill:#ffffff" />
  <path
     id="path639"
     d="m 330.37501,118.80992 c 58.3582,14.79503 105.15044,58.9453 123.4094,115.95316 l 21.54674,-6.81041 C 454.48893,163.72342 402.41275,113.87824 336.59832,97.263177 l -6.1646,22.192553 v -0.64581 l -0.0587,0 z"
     clip-rule="evenodd"
     inkscape:connector-curvature="0"
     style="fill:#ffffff;fill-rule:evenodd" />
  <path
     id="path641"
     d="m 342.17582,73.778991 6.10589,-22.192555 c 81.54883,20.489952 146.77616,81.959804 172.66747,161.512484 l -22.83837,7.39752 C 474.74404,148.75225 415.68132,92.683761 342.17582,73.778991 l 0,0 z"
     clip-rule="evenodd"
     inkscape:connector-curvature="0"
     style="fill:#ffffff;fill-rule:evenodd" />
</svg>

<svg width="580" height="580" viewBox="0 0 580 580" fill="none" xmlns="http://www.w3.org/2000/svg">
<g clip-path="url(#clip0)">
<path d="M66.2751 1.76863C24.9401 1.76863 1.7041 23.1396 1.7041 66.8046V516.928C1.7041 557.772 22.5991 579.157 63.8961 579.157H515.92C557.227 579.157 578.149 558.842 578.149 516.928V66.8046C578.149 24.2036 557.227 1.76863 514.628 1.76863C514.624 1.76863 66.1331 1.62563 66.2751 1.76863Z" fill="#111111" stroke="#EEEEEE" stroke-width="3.408"/>
<path d="M282.291 185.445H292.859C351.805 185.563 385.622 241.69 385.857 279.676C385.622 287.073 383.802 293.414 375.406 293.238C357.734 293.414 364.075 264.998 349.515 240.809C342.646 228.891 320.512 207.344 295.266 207.52H285.99C272.487 207.344 247.006 215.153 229.922 240.809C208.61 271.808 222.583 294.529 204.676 294.412C201.917 294.529 193.991 293.707 194.108 280.909C194.93 222.609 248.357 185.563 282.291 185.445V185.445Z" fill="white"/>
<path d="M290.334 507.826C312.468 508.061 329.553 485.634 329.788 470.193V438.137C329.553 372.499 398.479 346.607 398.244 280.91C398.479 219.382 342.88 172.883 290.334 173C246.771 172.883 217.064 201.005 205.85 215.565C172.15 257.25 191.525 296.997 167.688 296.997C160.936 296.997 154.243 293.181 154.185 279.677C153.128 214.509 206.907 145.406 291.685 145.289C360.024 145.406 427.247 199.89 427.247 283.435C427.247 360.815 359.495 377.019 359.495 444.947V473.95C359.495 503.775 332.899 537.886 289.219 538.062C287.634 537.592 285.755 537.005 283.7 536.829C275.657 534.422 270.079 525.968 272.017 517.748C274.306 510.586 280.941 508.824 289.923 507.885H290.334V507.826V507.826Z" fill="white"/>
<path d="M186.123 347.309L168.924 364.566L216.04 411.522L233.239 394.265L186.123 347.309Z" fill="white"/>
<path d="M232.739 335.158C232.505 327.643 238.611 321.538 245.832 321.303C253.758 321.538 259.805 327.643 259.688 335.158C259.805 342.732 253.699 348.779 245.832 349.014C238.611 348.838 232.563 342.732 232.739 335.158Z" fill="white"/>
<path d="M276.479 291.477C276.596 283.669 282.644 277.563 290.335 277.622C297.791 277.563 303.838 283.727 304.19 291.477C303.838 298.699 297.791 304.863 290.335 304.57C282.644 304.863 276.596 298.699 276.479 291.477Z" fill="white"/>
<path d="M98.9386 468.901C98.5863 461.562 104.81 455.456 112.148 455.808C119.84 455.398 125.887 461.562 126.004 468.901C125.887 476.651 119.84 482.698 112.148 482.757C104.81 482.698 98.5863 476.592 98.9386 468.901Z" fill="white"/>
<path d="M142.736 425.219C142.736 417.528 148.842 411.422 156.592 411.363C163.813 411.481 170.037 417.528 169.684 425.219C170.037 432.616 163.813 438.664 156.592 439.075C148.842 438.664 142.736 432.616 142.736 425.219Z" fill="white"/>
<path fill-rule="evenodd" clip-rule="evenodd" d="M330.375 118.81C388.733 133.605 435.525 177.756 453.784 234.764L475.331 227.953C454.489 163.724 402.413 113.879 336.598 97.2637L330.434 119.456V118.81H330.375H330.375Z" fill="white"/>
<path fill-rule="evenodd" clip-rule="evenodd" d="M342.176 73.7785L348.282 51.5859C429.831 72.0759 495.058 133.546 520.949 213.098L498.111 220.496C474.744 148.752 415.681 92.6833 342.176 73.7785Z" fill="white"/>
</g>
<defs>
<clipPath id="clip0">
<path d="M0 0H580V580H0V0Z" fill="white"/>
</clipPath>
</defs>
</svg>
